docs-src/static/img/community-links/discord-logo.svg

<svg width="23" height="19" viewBox="0 0 23 19" fill="none" xmlns="http://www.w3.org/2000/svg">
<g clip-path="url(#clip0_2022_858)">
<path d="M19.4832 2.32561C17.9721 1.63378 16.3768 1.14297 14.7381 0.865723C14.5139 1.26658 14.311 1.67901 14.1303 2.10129C12.3848 1.83826 10.6097 1.83826 8.86423 2.10129C8.68343 1.67906 8.48054 1.26663 8.25639 0.865723C6.61666 1.14531 5.02034 1.63729 3.50769 2.32923C0.504702 6.7722 -0.309361 11.1048 0.0976702 15.3759C1.8563 16.6753 3.8247 17.6635 5.91732 18.2975C6.38851 17.6638 6.80546 16.9915 7.16374 16.2877C6.48324 16.0335 5.82644 15.72 5.20094 15.3506C5.36556 15.2312 5.52657 15.1082 5.68214 14.9888C7.5022 15.8447 9.4887 16.2885 11.5 16.2885C13.5113 16.2885 15.4978 15.8447 17.3178 14.9888C17.4752 15.1173 17.6362 15.2403 17.799 15.3506C17.1723 15.7206 16.5143 16.0347 15.8326 16.2895C16.1904 16.993 16.6074 17.6647 17.079 18.2975C19.1734 17.666 21.1433 16.6783 22.9023 15.3778C23.3799 10.4246 22.0864 6.13181 19.4832 2.32561ZM7.67931 12.7492C6.54505 12.7492 5.60797 11.7199 5.60797 10.4536C5.60797 9.18726 6.51249 8.14888 7.67569 8.14888C8.8389 8.14888 9.76874 9.18726 9.74884 10.4536C9.72894 11.7199 8.83528 12.7492 7.67931 12.7492ZM15.3207 12.7492C14.1846 12.7492 13.2511 11.7199 13.2511 10.4536C13.2511 9.18726 14.1556 8.14888 15.3207 8.14888C16.4857 8.14888 17.4083 9.18726 17.3884 10.4536C17.3685 11.7199 16.4766 12.7492 15.3207 12.7492Z" fill="white"/>
</g>
<defs>
<clipPath id="clip0_2022_858">
<rect width="23" height="17.4318" fill="white" transform="translate(0 0.865723)"/>
</clipPath>
</defs>
</svg>

<svg xmlns="http://www.w3.org/2000/svg" fill="none" viewBox="0 0 23 19"><g clip-path="url(#a)"><path fill="#fff" d="M19.5 2.3A19 19 0 0 0 14.7 1L14.1 2q-2.6-.4-5.2 0L8.3.9q-2.5.3-4.8 1.4c-3 4.5-3.8 8.8-3.4 13q2.7 2.1 5.8 3 .8-1 1.3-2l-2-1q.3 0 .5-.3a14 14 0 0 0 11.6 0l.5.4-2 .9 1.3 2q3-.9 5.8-3 .6-7.3-3.4-13M7.7 12.7c-1.2 0-2-1-2-2.2S6.4 8 7.6 8q1.8.2 2 2.4c0 1.2-.9 2.2-2 2.2m7.6 0q-1.8-.2-2-2.2c0-1.3.9-2.4 2-2.4q2 .2 2 2.4c0 1.2-.8 2.2-2 2.2"/></g><defs><clipPath id="a"><path fill="#fff" d="M0 .9h23v17.4H0z"/></clipPath></defs></svg>
